src/assets/top/facialHair/MoustacheMagnum.svg

<svg width='280px' height='280px' viewBox='0 0 280 280' version='1.1' xmlns='http://www.w3.org/2000/svg'>
      <g
        id='Facial-Hair/Moustache-Magnum'
        transform='translate(49.000000, 72.000000)'>
        <defs>
          <path
            d='M83.9980103,74.839711 C83.4569991,75.6087366 82.761047,76.2496937 81.949688,76.6891498 C73.0477917,81.5102869 63.8767499,77.3322546 58.8763101,77.6298353 C56.459601,77.7739966 53.3405442,79.4153191 52.2155358,77.6791014 C50.9768736,75.7669804 55.0680827,65.2207224 64.7214121,63.4643353 C71.7310704,62.1893309 81.4972391,63.6024033 83.9980103,66.9380109 C86.4987814,63.6024033 96.2649453,62.1893309 103.274279,63.4643353 C112.927938,65.2207224 117.019147,75.7669804 115.780485,77.6791014 C114.655476,79.4153191 111.53642,77.7739966 109.119711,77.6298353 C104.118941,77.3322546 94.948229,81.5102869 86.0463327,76.6891498 C85.2349736,76.2496937 84.5390216,75.6087366 83.9980103,74.839711 Z'
            id='path1'
          />
        </defs>
        <mask id='mask1' fill='white'>
          <use href='#path1' />
        </mask>
        <use
          class='CustomColor'
          fill='#28354B'
          fillRule='evenodd'
          href='#path1'
        />
      </g>
</svg>

<svg width="280" height="280" xmlns="http://www.w3.org/2000/svg"><g transform="translate(49 72)"><defs><path d="M83.998 74.84a6.042 6.042 0 01-2.048 1.85c-8.902 4.82-18.073.642-23.074.94-2.416.144-5.535 1.785-6.66.05-1.24-1.913 2.852-12.46 12.505-14.216 7.01-1.275 16.776.138 19.277 3.474 2.5-3.336 12.267-4.749 19.276-3.474 9.654 1.757 13.745 12.303 12.506 14.215-1.125 1.736-4.244.095-6.66-.05-5.001-.297-14.172 3.881-23.074-.94a6.042 6.042 0 01-2.048-1.85z" id="a"/></defs><use class="CustomColor" fill="#28354B" href="#a"/></g></svg>
